frontend/public/svg/interface/location-pin.svg

<svg width="38" height="141" viewBox="0 0 38 141" fill="none" xmlns="http://www.w3.org/2000/svg">
<g clip-path="url(#clip0)">
<path d="M16.599 33.4326C15.5514 33.1077 14.801 32.9245 14.0863 32.647C12.1938 32.0309 10.3496 31.2751 8.56875 30.3858C2.04376 26.6484 -0.329446 20.063 2.13203 12.9779C5.29975 3.86093 13.2722 -0.875189 22.7741 0.751834C24.5202 1.05073 26.2463 1.47419 27.9775 1.85625C32.1371 2.77503 34.7932 5.33598 36.1622 9.33338C37.7181 13.7686 37.7956 18.5888 36.383 23.0718C35.8313 25.0627 34.7935 26.885 33.3633 28.3747C31.9331 29.8643 30.1552 30.9746 28.1897 31.6054C26.7376 32.1187 25.2505 32.532 23.4998 33.0785C23.4998 33.7932 23.4959 34.5378 23.4998 35.2876C23.6868 65.7297 23.8651 96.1727 24.0347 126.616C24.049 129.715 23.703 132.82 23.4505 135.916C23.361 136.794 23.1476 137.655 22.8169 138.473C22.5763 139.225 22.0795 139.868 21.4133 140.289C20.7472 140.711 19.9541 140.885 19.1728 140.781C18.4407 140.773 17.7325 140.519 17.1622 140.059C16.592 139.599 16.1928 138.961 16.0291 138.247C15.6634 136.97 15.4649 135.651 15.4384 134.323C15.5592 106.324 15.7149 78.3255 15.9058 50.3272C15.9434 45.4468 16.3601 40.5688 16.5938 35.689C16.6262 35.0314 16.599 34.3721 16.599 33.4326ZM29.279 17.0291C29.279 16.4748 29.3141 15.9185 29.2732 15.3675C28.9986 11.6755 27.4167 9.0493 23.5219 8.28127C21.0287 7.79005 18.5606 7.13618 16.0492 6.78661C15.082 6.72248 14.121 6.98258 13.3177 7.52553C10.6959 9.24872 9.27818 11.8661 8.42458 14.8174C7.26268 18.8368 8.40316 21.7827 12.0356 23.8002C13.6725 24.7389 15.4784 25.3451 17.3496 25.5842C19.2209 25.8234 21.121 25.6909 22.941 25.194C27.8795 23.9302 29.3335 22.1863 29.279 17.0291Z" fill="black"/>
</g>
<defs>
<clipPath id="clip0">
<rect width="37" height="141" fill="white" transform="translate(0.777344)"/>
</clipPath>
</defs>
</svg>

<svg xmlns="http://www.w3.org/2000/svg" width="38" height="141" fill="none" viewBox="0 0 38 141"><g clip-path="url(#a)"><path fill="#000" d="M16.599 33.433c-1.048-.325-1.798-.508-2.513-.786a40 40 0 0 1-5.517-2.261C2.044 26.648-.33 20.063 2.132 12.978 5.3 3.86 13.272-.875 22.774.752c1.746.299 3.472.722 5.203 1.104 4.16.919 6.816 3.48 8.185 7.477a21.75 21.75 0 0 1 .221 13.739 12.46 12.46 0 0 1-8.193 8.533c-1.452.514-2.94.927-4.69 1.473 0 .715-.004 1.46 0 2.21q.28 45.663.535 91.328c.014 3.099-.332 6.204-.584 9.3a9.4 9.4 0 0 1-.634 2.557 3.36 3.36 0 0 1-3.644 2.308 3.26 3.26 0 0 1-3.144-2.534 15.4 15.4 0 0 1-.59-3.924q.18-41.998.467-83.996c.037-4.88.454-9.758.688-14.638.032-.658.005-1.317.005-2.256m12.68-16.404c0-.554.035-1.11-.006-1.662-.274-3.692-1.856-6.318-5.751-7.086-2.493-.491-4.961-1.145-7.473-1.494a4.36 4.36 0 0 0-2.731.739c-2.622 1.723-4.04 4.34-4.893 7.291-1.162 4.02-.022 6.966 3.61 8.983a14.33 14.33 0 0 0 10.906 1.394c4.939-1.264 6.393-3.008 6.338-8.165"/></g><defs><clipPath id="a"><path fill="#fff" d="M.777 0h37v141h-37z"/></clipPath></defs></svg>
